X: 7
T: Paddy Ryan's Dream
R: reel
M: 4/4
L: 1/8
K: Bmin
dc |: BF ~F2 dBcA | B/c/d AG ~F3 E | ~F3 E ^DFBc | dBcA Bcdc |
BF ~F2 dBcA | B/c/d AG ~F3 E | D/E/D C/D/C B,2 Bc | d/c/B cA Bcdc :|
|: Bbba bfdB | Aaa^g aecA | Bbba bafe | f/g/f e2 d/e/d c/d/c |
Bbba bfdB | Aaa^g aecA | B/c/d ce dfeg | fedc Bcdc :|


Tune 79	Setting 12571

